img/planet.svg

<svg width="19" height="19" viewBox="0 0 19 19" fill="none" xmlns="http://www.w3.org/2000/svg">
<g clip-path="url(#clip0_2_59)">
<g clip-path="url(#clip1_2_59)">
<path d="M15.5765 3.42312C12.2184 0.0649183 6.78244 0.0643815 3.42377 3.42312C0.065538 6.78131 0.0650349 12.2172 3.42377 15.5759C6.7819 18.9341 12.2178 18.9346 15.5765 15.5759C18.9347 12.2177 18.9352 6.78182 15.5765 3.42312ZM15.2174 14.3509C14.8159 13.9919 14.3864 13.6742 13.9337 13.4004C14.2329 12.3668 14.4102 11.2294 14.4521 10.0471H16.9785C16.8643 11.6407 16.252 13.1357 15.2174 14.3509ZM2.02174 10.0471H4.54819C4.59009 11.2294 4.76736 12.3668 5.06657 13.4004C4.61388 13.6742 4.1844 13.9919 3.7829 14.3509C2.74829 13.1357 2.13601 11.6407 2.02174 10.0471ZM3.78293 4.64808C4.18443 5.00711 4.61391 5.32484 5.0666 5.59865C4.76739 6.63223 4.59012 7.7696 4.54822 8.95189H2.02174C2.13601 7.3583 2.74829 5.86338 3.78293 4.64808ZM8.95254 5.71184C8.05943 5.64797 7.1983 5.428 6.39996 5.06511C6.86426 3.8695 7.7202 2.4355 8.95254 2.08013V5.71184ZM8.95254 6.80912V8.95192H5.64389C5.6818 7.95179 5.82351 6.99142 6.05918 6.11271C6.96641 6.50931 7.94212 6.74616 8.95254 6.80912ZM8.95254 10.0471V12.1899C7.94212 12.2529 6.96641 12.4897 6.05918 12.8863C5.82351 12.0076 5.6818 11.0472 5.64389 10.0471H8.95254ZM8.95254 13.2872V16.9189C7.72026 16.5635 6.86433 15.1297 6.39996 13.9339C7.1983 13.571 8.05943 13.3511 8.95254 13.2872ZM10.0477 13.2872C10.9409 13.3511 11.802 13.571 12.6003 13.9339C12.136 15.1296 11.2801 16.5635 10.0477 16.9189V13.2872ZM10.0477 12.1899V10.0471H13.3564C13.3185 11.0472 13.1768 12.0076 12.9411 12.8863C12.0339 12.4897 11.0582 12.2529 10.0477 12.1899ZM10.0477 8.95192V6.80912C11.0582 6.74616 12.0339 6.50931 12.9411 6.11271C13.1768 6.99142 13.3185 7.95179 13.3564 8.95192H10.0477ZM10.0477 5.71184V2.08017C11.2801 2.43554 12.136 3.86954 12.6003 5.06514C11.802 5.428 10.9409 5.64797 10.0477 5.71184ZM12.5075 2.62689C13.2084 2.93386 13.8624 3.35008 14.4487 3.86652C14.1696 4.11256 13.8752 4.33565 13.5677 4.53516C13.2947 3.8591 12.9459 3.2021 12.5075 2.62689ZM5.43254 4.53516C5.12508 4.33565 4.83066 4.11256 4.55158 3.86652C5.13783 3.35008 5.79181 2.93386 6.49279 2.62689C6.05438 3.20217 5.70559 3.85917 5.43254 4.53516ZM5.43258 14.4639C5.70559 15.1399 6.05445 15.7969 6.49282 16.3721C5.79184 16.0652 5.13786 15.649 4.55161 15.1325C4.83066 14.8865 5.12511 14.6634 5.43258 14.4639ZM13.5677 14.4639C13.8752 14.6634 14.1696 14.8865 14.4487 15.1325C13.8624 15.6489 13.2084 16.0652 12.5075 16.3721C12.9458 15.797 13.2947 15.1399 13.5677 14.4639ZM14.4521 8.95192C14.4102 7.76963 14.2329 6.63223 13.9337 5.59869C14.3864 5.32487 14.8159 5.00714 15.2174 4.64811C16.252 5.86338 16.8643 7.3583 16.9785 8.95192H14.4521Z" fill="white"/>
</g>
</g>
<defs>
<clipPath id="clip0_2_59">
<rect width="19" height="19" fill="white"/>
</clipPath>
<clipPath id="clip1_2_59">
<rect width="17.1905" height="17.1905" fill="white" transform="translate(0.904785 0.904755)"/>
</clipPath>
</defs>
</svg>

<svg width="19" height="19" fill="none" xmlns="http://www.w3.org/2000/svg"><g clip-path="url(#a)"><g clip-path="url(#b)"><path d="M15.576 3.423a8.589 8.589 0 0 0-12.152 0 8.589 8.589 0 0 0 0 12.153 8.589 8.589 0 0 0 12.152 0 8.589 8.589 0 0 0 0-12.153Zm-.359 10.928a8.614 8.614 0 0 0-1.283-.95 13.9 13.9 0 0 0 .518-3.354h2.527a7.43 7.43 0 0 1-1.762 4.304ZM2.022 10.047h2.526c.042 1.182.22 2.32.519 3.353a8.614 8.614 0 0 0-1.284.95 7.43 7.43 0 0 1-1.761-4.303Zm1.76-5.399c.402.36.832.677 1.285.95a13.876 13.876 0 0 0-.519 3.354H2.022a7.43 7.43 0 0 1 1.76-4.304Zm5.17 1.064A7.44 7.44 0 0 1 6.4 5.065c.464-1.196 1.32-2.63 2.553-2.985v3.632Zm0 1.097v2.143H5.645c.038-1 .18-1.96.415-2.84a8.536 8.536 0 0 0 2.894.697Zm0 3.238v2.143a8.55 8.55 0 0 0-2.893.696 12.903 12.903 0 0 1-.415-2.839h3.309Zm0 3.24v3.632c-1.232-.355-2.088-1.79-2.552-2.985a7.44 7.44 0 0 1 2.553-.647Zm1.096 0a7.44 7.44 0 0 1 2.552.647c-.464 1.196-1.32 2.63-2.552 2.985v-3.632Zm0-1.097v-2.143h3.308a12.9 12.9 0 0 1-.415 2.84 8.536 8.536 0 0 0-2.893-.697Zm0-3.238V6.809a8.535 8.535 0 0 0 2.893-.696 12.9 12.9 0 0 1 .415 2.839h-3.308Zm0-3.24V2.08c1.232.356 2.088 1.79 2.552 2.985a7.44 7.44 0 0 1-2.552.647Zm2.46-3.085c.7.307 1.354.723 1.94 1.24a7.412 7.412 0 0 1-.88.668 8.243 8.243 0 0 0-1.06-1.908ZM5.433 4.535a7.53 7.53 0 0 1-.881-.668 7.465 7.465 0 0 1 1.94-1.24 8.247 8.247 0 0 0-1.06 1.908Zm0 9.929a8.245 8.245 0 0 0 1.06 1.908 7.462 7.462 0 0 1-1.941-1.24 7.53 7.53 0 0 1 .88-.668Zm8.135 0c.307.2.602.422.88.668a7.467 7.467 0 0 1-1.94 1.24 8.245 8.245 0 0 0 1.06-1.908Zm.884-5.512a13.898 13.898 0 0 0-.518-3.353 8.614 8.614 0 0 0 1.283-.95 7.43 7.43 0 0 1 1.761 4.303h-2.526Z" fill="#fff"/></g></g><defs><clipPath id="a"><path fill="#fff" d="M0 0h19v19H0z"/></clipPath><clipPath id="b"><path fill="#fff" transform="translate(.905 .905)" d="M0 0h17.191v17.191H0z"/></clipPath></defs></svg>
